X:124
T:Lady & prentice
%%VWML:SBG-1-2-149-0
F:http://www.vwml.org/record/SBG/1/2/149
Z:Original Sibelius transcriptions by M. & S. Graebe
M:3/4
I:linebreak $
K:Bb
V:1 treble nm="P1"
V:1
 dc | B>A GABc | d2 c2 BA | G2 D(G G)^F | G2 z2 Bc | (3d=e^f65/64 g2 dc |$ B2 G2 (3GAB65/64 | %7
 c2 e2 d c | d2 z2 Bc | (3d=ef65/64 g2 dc | B2 G2 AB |$ c2 f2 g2 | !fermata!d(3e/d/c/ d2 dc | %13
 BA G2 cd | e2 c2 BA | GD G3 [^FA] | G6 | %17

